X:190
T:Auld Graden Kirk
S:LP, Tom Hughes and his Border Fiddle (1981)
Z:Nigel Gatherer
S:Nigel Gatherer to CoMandoList TOW
M:3/4
L:1/8
K:D
A2|"D"f>ed >BA>G|"D"F>Ad >fe>d|"G"B2d2B2|"D"A4f2|\
"G"g2f2a2|"D"a2f2d2|"G"B>cd >Bc>d|"A7"e4A2|!
"D"f>ed >BA>G|"D"F>Ad >fe>d|"G"B2d2B2|"D"A4f2|\
"G"g2f2a2|"A7"a2f2e2|"D"d3 "A7"edc|"D"d3||!
ef>g|"D"a3 faf|"D"a2f2d2|"A7"c2B2A2|"G"g6|\
"G"g3 fgf|"A7"g2f2e2|"G"d2c2B2|"D"A4d>f|!
"D"a3 faf|"D"a2f2d2|"A7"c2B2A2|"G"g4 (3gag|\
"D"f2e2d2|"A7"e2B2c2|"G"d3 edc|"D"d4||!
